X: 28
T: JENNY PLUCK PEARS
B: "FIFTY OLD ENGLISH FOLK DANCE AIRS", Edgar H. Hunt ed., Schott & Co. Ltd. pub., London 1939
Z: 2004-2014 John Chambers <jc:trillian.mit.edu>
N: The first two bars are sometimes repeated, giving an 8-bar first strain.
M: 6/8
L: 1/8
K: Gdor
|: G2G (A>B)c | (B>A)G (F2D) | d2d (c2A) | (B>A)G (F2D) | (E>F)G (F>E)F | G3 G3 :|[M:3/4][L:1/4]
[| G(dc) | (B2A) | G(dc) | (B2A) | Gdc | (B>A)G | (F>E)F | G3 |]

%%sep 1 1 500
%%sep 1 1 500
